X: 21752
T: DUNCAN McQUEEN'S STRATHSPEY
P: 2d sett.
%R: strathspey, reel
B: W. Hamilton "Universal Tune-Book" Vol. 2 Glasgow 1846 p.175 #2
S: http://s3-eu-west-1.amazonaws.com/itma.dl.printmaterial/book_pdfs/hamiltonvol2web.pdf
Z: 2016 John Chambers <jc:trillian.mit.edu>
M: C
L: 1/8
K: Am
% - - - - - - - - - - - - - - - - - - - - - - - - -
A/>G/ |\
EAAA AGAe | {e}d2d>c cGG2 |\
EAAA A>GAe | e>cd>e c<AA :| B |\
Aaa2 {^ga}Aaa2 | Bgg2 {^fg}Bgg2 |
Aaa2 {^ga}Aaa2 | ge ed/B/ BAAg |\
(3(aba) (3(gag) (3(ege) c>d | eg/e/ de/d/ c>GG2 |\
c>Acd e>dea | g>ed>e c<AA |]
% - - - - - - - - - - - - - - - - - - - - - - - - -

%%sep 1 1 500
%%sep 1 1 500

